X:147
T:PILE MENU 2
Z: Yves BELOTTEAU
M:6/8
L:1/8
Q:1/4=60
K:G
|B/2BB/2c B/2A/2A/2A/2G|B/2BB/2c B/2A3/2G|B/2BB/2c/2A/2 A/2A/2A/2A/2G|B/
2BB/2c/2A/2 A/2A3/2G|
B/2BB/2c A/2AA/2G|B/2BB/2c/2A/2 A/2AA/2G|B/2BB/2c B/2A/2A/2A/2G|B/2BB/2c
 B/2A3/2G3/2|
